X: 23232
T: Leary's Pound Note
R: polka
M: 2/4
K: Adorian
|:EA AB|cd e/f/e/d/|cA AB|c/d/c/B/ AG|
EA AB|cd e/f/e/d/|cA BG|A2 A2:|
|:EA AB|cc BA|GE EF|GA/G/ FG/F/|
EA AB|cc BA|GB dB|A2 A2:|

